apps/ui-icons/svgs/iota_logo_mark.svg

<svg viewBox="0 0 24 24" width="24" height="24"  fill="none" xmlns="http://www.w3.org/2000/svg">
<path d="M17.6998 3.13908C17.6998 3.76818 17.1839 4.27817 16.5476 4.27817C15.9113 4.27817 15.3954 3.76818 15.3954 3.13908C15.3954 2.50999 15.9113 2 16.5476 2C17.1839 2 17.6998 2.50999 17.6998 3.13908Z" fill="#171D26"/>
<path d="M18.9951 19.2299C18.9951 19.859 18.4792 20.369 17.8429 20.369C17.2066 20.369 16.6907 19.859 16.6907 19.2299C16.6907 18.6008 17.2066 18.0908 17.8429 18.0908C18.4792 18.0908 18.9951 18.6008 18.9951 19.2299Z" fill="#171D26"/>
<path d="M16.877 7.12565C17.4109 7.12565 17.8438 6.69772 17.8438 6.16985C17.8438 5.64197 17.4109 5.21404 16.877 5.21404C16.343 5.21404 15.9102 5.64197 15.9102 6.16985C15.9102 6.69772 16.343 7.12565 16.877 7.12565Z" fill="#171D26"/>
<path d="M20.4149 6.53628C20.4149 7.06416 19.982 7.49209 19.4481 7.49209C18.9141 7.49209 18.4813 7.06416 18.4813 6.53628C18.4813 6.00841 18.9141 5.58048 19.4481 5.58048C19.982 5.58048 20.4149 6.00841 20.4149 6.53628Z" fill="#171D26"/>
<path d="M16.5479 9.54854C17.0026 9.54854 17.3712 9.18414 17.3712 8.73462C17.3712 8.28511 17.0026 7.92071 16.5479 7.92071C16.0932 7.92071 15.7246 8.28511 15.7246 8.73462C15.7246 9.18414 16.0932 9.54854 16.5479 9.54854Z" fill="#171D26"/>
<path d="M19.943 9.07837C19.943 9.52788 19.5744 9.89229 19.1197 9.89229C18.665 9.89229 18.2964 9.52788 18.2964 9.07837C18.2964 8.62886 18.665 8.26446 19.1197 8.26446C19.5744 8.26446 19.943 8.62886 19.943 9.07837Z" fill="#171D26"/>
<path d="M21.1767 10.6863C21.6314 10.6863 22 10.3219 22 9.87243C22 9.42292 21.6314 9.05852 21.1767 9.05852C20.722 9.05852 20.3535 9.42292 20.3535 9.87243C20.3535 10.3219 20.722 10.6863 21.1767 10.6863Z" fill="#171D26"/>
<path d="M19.0772 11.1339C19.0772 11.5269 18.755 11.8454 18.3576 11.8454C17.9601 11.8454 17.638 11.5269 17.638 11.1339C17.638 10.741 17.9601 10.4225 18.3576 10.4225C18.755 10.4225 19.0772 10.741 19.0772 11.1339Z" fill="#171D26"/>
<path d="M15.7865 11.4989C16.1839 11.4989 16.5061 11.1804 16.5061 10.7874C16.5061 10.3945 16.1839 10.076 15.7865 10.076C15.389 10.076 15.0669 10.3945 15.0669 10.7874C15.0669 11.1804 15.389 11.4989 15.7865 11.4989Z" fill="#171D26"/>
<path d="M21.1565 11.9259C21.1565 12.3189 20.8344 12.6374 20.4369 12.6374C20.0395 12.6374 19.7173 12.3189 19.7173 11.9259C19.7173 11.533 20.0395 11.2145 20.4369 11.2145C20.8344 11.2145 21.1565 11.533 21.1565 11.9259Z" fill="#171D26"/>
<path d="M17.3289 13.3315C17.6702 13.3315 17.9469 13.058 17.9469 12.7205C17.9469 12.3831 17.6702 12.1096 17.3289 12.1096C16.9876 12.1096 16.7109 12.3831 16.7109 12.7205C16.7109 13.058 16.9876 13.3315 17.3289 13.3315Z" fill="#171D26"/>
<path d="M20.0269 13.4926C20.0269 13.83 19.7502 14.1035 19.4089 14.1035C19.0676 14.1035 18.791 13.83 18.791 13.4926C18.791 13.1552 19.0676 12.8817 19.4089 12.8817C19.7502 12.8817 20.0269 13.1552 20.0269 13.4926Z" fill="#171D26"/>
<path d="M14.778 12.9657C15.1193 12.9657 15.396 12.6922 15.396 12.3548C15.396 12.0174 15.1193 11.7439 14.778 11.7439C14.4367 11.7439 14.1601 12.0174 14.1601 12.3548C14.1601 12.6922 14.4367 12.9657 14.778 12.9657Z" fill="#171D26"/>
<path d="M16.7114 13.8184C16.7114 14.0992 16.4811 14.3269 16.1971 14.3269C15.913 14.3269 15.6828 14.0992 15.6828 13.8184C15.6828 13.5376 15.913 13.31 16.1971 13.31C16.4811 13.31 16.7114 13.5376 16.7114 13.8184Z" fill="#171D26"/>
<path d="M17.0818 15.7316C17.3317 15.7316 17.5343 15.5313 17.5343 15.2843C17.5343 15.0372 17.3317 14.8369 17.0818 14.8369C16.8319 14.8369 16.6293 15.0372 16.6293 15.2843C16.6293 15.5313 16.8319 15.7316 17.0818 15.7316Z" fill="#171D26"/>
<path d="M16.3622 15.6503C16.3622 15.8528 16.1962 16.0169 15.9915 16.0169C15.7867 16.0169 15.6207 15.8528 15.6207 15.6503C15.6207 15.4479 15.7867 15.2838 15.9915 15.2838C16.1962 15.2838 16.3622 15.4479 16.3622 15.6503Z" fill="#171D26"/>
<path d="M15.0248 14.9582C15.2747 14.9582 15.4773 14.7579 15.4773 14.5108C15.4773 14.2638 15.2747 14.0635 15.0248 14.0635C14.7749 14.0635 14.5723 14.2638 14.5723 14.5108C14.5723 14.7579 14.7749 14.9582 15.0248 14.9582Z" fill="#171D26"/>
<path d="M14.1396 13.474C14.1396 13.7548 13.9093 13.9825 13.6253 13.9825C13.3412 13.9825 13.111 13.7548 13.111 13.474C13.111 13.1932 13.3412 12.9656 13.6253 12.9656C13.9093 12.9656 14.1396 13.1932 14.1396 13.474Z" fill="#171D26"/>
<path d="M13.6058 10.1572C13.8898 10.1572 14.12 9.92959 14.12 9.64878C14.12 9.36797 13.8898 9.14033 13.6058 9.14033C13.3217 9.14033 13.0915 9.36797 13.0915 9.64878C13.0915 9.92959 13.3217 10.1572 13.6058 10.1572Z" fill="#171D26"/>
<path d="M14.2831 7.91982C14.2831 8.16689 14.0805 8.36718 13.8306 8.36718C13.5807 8.36718 13.3781 8.16689 13.3781 7.91982C13.3781 7.67275 13.5807 7.47246 13.8306 7.47246C14.0805 7.47246 14.2831 7.67275 14.2831 7.91982Z" fill="#171D26"/>
<path d="M14.3251 6.90346C14.5298 6.90346 14.6958 6.73935 14.6958 6.5369C14.6958 6.33446 14.5298 6.17035 14.3251 6.17035C14.1203 6.17035 13.9543 6.33446 13.9543 6.5369C13.9543 6.73935 14.1203 6.90346 14.3251 6.90346Z" fill="#171D26"/>
<path d="M13.9141 5.76384C13.9141 6.0109 13.7116 6.21119 13.4616 6.21119C13.2117 6.21119 13.0091 6.0109 13.0091 5.76384C13.0091 5.51677 13.2117 5.31648 13.4616 5.31648C13.7116 5.31648 13.9141 5.51677 13.9141 5.76384Z" fill="#171D26"/>
<path d="M18.2562 15.1017C18.5402 15.1017 18.7705 14.8741 18.7705 14.5932C18.7705 14.3124 18.5402 14.0848 18.2562 14.0848C17.9722 14.0848 17.7419 14.3124 17.7419 14.5932C17.7419 14.8741 17.9722 15.1017 18.2562 15.1017Z" fill="#171D26"/>
<path d="M12.8024 5.11131C12.8024 5.39212 12.5722 5.61976 12.2881 5.61976C12.0041 5.61976 11.7738 5.39212 11.7738 5.11131C11.7738 4.8305 12.0041 4.60286 12.2881 4.60286C12.5722 4.60286 12.8024 4.8305 12.8024 5.11131Z" fill="#171D26"/>
<path d="M12.639 7.77643C12.923 7.77643 13.1533 7.54879 13.1533 7.26798C13.1533 6.98717 12.923 6.75953 12.639 6.75953C12.3549 6.75953 12.1247 6.98717 12.1247 7.26798C12.1247 7.54879 12.3549 7.77643 12.639 7.77643Z" fill="#171D26"/>
<path d="M12.6805 9.2212C12.6805 9.5586 12.4038 9.83212 12.0625 9.83212C11.7212 9.83212 11.4446 9.5586 11.4446 9.2212C11.4446 8.88379 11.7212 8.61027 12.0625 8.61027C12.4038 8.61027 12.6805 8.88379 12.6805 9.2212Z" fill="#171D26"/>
<path d="M10.1888 9.83239C10.5862 9.83239 10.9084 9.51387 10.9084 9.12095C10.9084 8.72804 10.5862 8.40952 10.1888 8.40952C9.79135 8.40952 9.46917 8.72804 9.46917 9.12095C9.46917 9.51387 9.79135 9.83239 10.1888 9.83239Z" fill="#171D26"/>
<path d="M8.8313 9.50668C8.8313 9.95619 8.46271 10.3206 8.00803 10.3206C7.55335 10.3206 7.18475 9.95619 7.18475 9.50668C7.18475 9.05717 7.55335 8.69277 8.00803 8.69277C8.46271 8.69277 8.8313 9.05717 8.8313 9.50668Z" fill="#171D26"/>
<path d="M5.6223 11.4796C6.15625 11.4796 6.5891 11.0516 6.5891 10.5238C6.5891 9.99588 6.15625 9.56795 5.6223 9.56795C5.08835 9.56795 4.6555 9.99588 4.6555 10.5238C4.6555 11.0516 5.08835 11.4796 5.6223 11.4796Z" fill="#171D26"/>
<path d="M4.30437 12.2938C4.30437 12.9229 3.78852 13.4329 3.15219 13.4329C2.51585 13.4329 2 12.9229 2 12.2938C2 11.6647 2.51585 11.1547 3.15219 11.1547C3.78852 11.1547 4.30437 11.6647 4.30437 12.2938Z" fill="#171D26"/>
<path d="M4.65552 9.09876C5.18947 9.09876 5.62232 8.67084 5.62232 8.14296C5.62232 7.61508 5.18947 7.18715 4.65552 7.18715C4.12157 7.18715 3.68872 7.61508 3.68872 8.14296C3.68872 8.67084 4.12157 9.09876 4.65552 9.09876Z" fill="#171D26"/>
<path d="M7.86452 7.12588C7.86452 7.5754 7.49593 7.9398 7.04125 7.9398C6.58657 7.9398 6.21797 7.5754 6.21797 7.12588C6.21797 6.67637 6.58657 6.31197 7.04125 6.31197C7.49593 6.31197 7.86452 6.67637 7.86452 7.12588Z" fill="#171D26"/>
<path d="M6.69248 5.78381C7.14716 5.78381 7.51576 5.41941 7.51576 4.9699C7.51576 4.52039 7.14716 4.15599 6.69248 4.15599C6.2378 4.15599 5.86921 4.52039 5.86921 4.9699C5.86921 5.41941 6.2378 5.78381 6.69248 5.78381Z" fill="#171D26"/>
<path d="M9.59286 4.58417C9.59286 4.97709 9.27068 5.29561 8.87324 5.29561C8.47581 5.29561 8.15363 4.97709 8.15363 4.58417C8.15363 4.19126 8.47581 3.87274 8.87324 3.87274C9.27068 3.87274 9.59286 4.19126 9.59286 4.58417Z" fill="#171D26"/>
<path d="M10.7449 5.29672C11.0862 5.29672 11.3629 5.02319 11.3629 4.68579C11.3629 4.34838 11.0862 4.07486 10.7449 4.07486C10.4036 4.07486 10.1269 4.34838 10.1269 4.68579C10.1269 5.02319 10.4036 5.29672 10.7449 5.29672Z" fill="#171D26"/>
<path d="M11.7116 6.84246C11.7116 7.17987 11.4349 7.45339 11.0937 7.45339C10.7524 7.45339 10.4757 7.17987 10.4757 6.84246C10.4757 6.50506 10.7524 6.23153 11.0937 6.23153C11.4349 6.23153 11.7116 6.50506 11.7116 6.84246Z" fill="#171D26"/>
<path d="M9.22201 7.47153C9.61944 7.47153 9.94163 7.15301 9.94163 6.7601C9.94163 6.36718 9.61944 6.04866 9.22201 6.04866C8.82457 6.04866 8.50239 6.36718 8.50239 6.7601C8.50239 7.15301 8.82457 7.47153 9.22201 7.47153Z" fill="#171D26"/>
<path d="M7.55591 12.5181C7.55591 12.7206 7.38991 12.8847 7.18514 12.8847C6.98036 12.8847 6.81436 12.7206 6.81436 12.5181C6.81436 12.3157 6.98036 12.1516 7.18514 12.1516C7.38991 12.1516 7.55591 12.3157 7.55591 12.5181Z" fill="#171D26"/>
<path d="M8.66611 12.6998C8.91602 12.6998 9.11862 12.4995 9.11862 12.2524C9.11862 12.0053 8.91602 11.8051 8.66611 11.8051C8.4162 11.8051 8.21361 12.0053 8.21361 12.2524C8.21361 12.4995 8.4162 12.6998 8.66611 12.6998Z" fill="#171D26"/>
<path d="M10.8068 11.5813C10.8068 11.8621 10.5765 12.0898 10.2925 12.0898C10.0084 12.0898 9.77818 11.8621 9.77818 11.5813C9.77818 11.3005 10.0084 11.0729 10.2925 11.0729C10.5765 11.0729 10.8068 11.3005 10.8068 11.5813Z" fill="#171D26"/>
<path d="M10.6835 13.7178C11.0248 13.7178 11.3015 13.4443 11.3015 13.1069C11.3015 12.7695 11.0248 12.496 10.6835 12.496C10.3422 12.496 10.0656 12.7695 10.0656 13.1069C10.0656 13.4443 10.3422 13.7178 10.6835 13.7178Z" fill="#171D26"/>
<path d="M9.22198 13.5957C9.22198 13.8765 8.99172 14.1041 8.70768 14.1041C8.42364 14.1041 8.19338 13.8765 8.19338 13.5957C8.19338 13.3149 8.42364 13.0872 8.70768 13.0872C8.99172 13.0872 9.22198 13.3149 9.22198 13.5957Z" fill="#171D26"/>
<path d="M6.95995 14.0823C7.20986 14.0823 7.41245 13.882 7.41245 13.635C7.41245 13.3879 7.20986 13.1876 6.95995 13.1876C6.71004 13.1876 6.50745 13.3879 6.50745 13.635C6.50745 13.882 6.71004 14.0823 6.95995 14.0823Z" fill="#171D26"/>
<path d="M7.49419 14.9789C7.49419 15.2597 7.26393 15.4874 6.9799 15.4874C6.69586 15.4874 6.4656 15.2597 6.4656 14.9789C6.4656 14.6981 6.69586 14.4705 6.9799 14.4705C7.26393 14.4705 7.49419 14.6981 7.49419 14.9789Z" fill="#171D26"/>
<path d="M9.07849 15.7521C9.41978 15.7521 9.69645 15.4786 9.69645 15.1412C9.69645 14.8038 9.41978 14.5303 9.07849 14.5303C8.73721 14.5303 8.46054 14.8038 8.46054 15.1412C8.46054 15.4786 8.73721 15.7521 9.07849 15.7521Z" fill="#171D26"/>
<path d="M12.2463 14.7749C12.2463 15.1678 11.9241 15.4864 11.5267 15.4864C11.1292 15.4864 10.807 15.1678 10.807 14.7749C10.807 14.382 11.1292 14.0635 11.5267 14.0635C11.9241 14.0635 12.2463 14.382 12.2463 14.7749Z" fill="#171D26"/>
<path d="M12.9675 17.2574C13.4222 17.2574 13.7908 16.893 13.7908 16.4435C13.7908 15.994 13.4222 15.6296 12.9675 15.6296C12.5128 15.6296 12.1442 15.994 12.1442 16.4435C12.1442 16.893 12.5128 17.2574 12.9675 17.2574Z" fill="#171D26"/>
<path d="M10.6615 16.7879C10.6615 17.1808 10.3393 17.4993 9.94186 17.4993C9.54443 17.4993 9.22224 17.1808 9.22224 16.7879C9.22224 16.395 9.54443 16.0765 9.94186 16.0765C10.3393 16.0765 10.6615 16.395 10.6615 16.7879Z" fill="#171D26"/>
<path d="M8.235 18.884C8.63243 18.884 8.95462 18.5654 8.95462 18.1725C8.95462 17.7796 8.63243 17.4611 8.235 17.4611C7.83757 17.4611 7.51538 17.7796 7.51538 18.1725C7.51538 18.5654 7.83757 18.884 8.235 18.884Z" fill="#171D26"/>
<path d="M10.4775 19.8604C10.4775 20.3099 10.1089 20.6743 9.6542 20.6743C9.19952 20.6743 8.83093 20.3099 8.83093 19.8604C8.83093 19.4109 9.19952 19.0465 9.6542 19.0465C10.1089 19.0465 10.4775 19.4109 10.4775 19.8604Z" fill="#171D26"/>
<path d="M13.4402 21C13.9742 21 14.407 20.5721 14.407 20.0442C14.407 19.5163 13.9742 19.0884 13.4402 19.0884C12.9063 19.0884 12.4734 19.5163 12.4734 20.0442C12.4734 20.5721 12.9063 21 13.4402 21Z" fill="#171D26"/>
<path d="M12.1864 18.4778C12.1864 18.9273 11.8178 19.2917 11.3632 19.2917C10.9085 19.2917 10.5399 18.9273 10.5399 18.4778C10.5399 18.0283 10.9085 17.6639 11.3632 17.6639C11.8178 17.6639 12.1864 18.0283 12.1864 18.4778Z" fill="#171D26"/>
<path d="M15.025 18.9657C15.559 18.9657 15.9918 18.5378 15.9918 18.0099C15.9918 17.482 15.559 17.0541 15.025 17.0541C14.4911 17.0541 14.0582 17.482 14.0582 18.0099C14.0582 18.5378 14.4911 18.9657 15.025 18.9657Z" fill="#171D26"/>
<path d="M7.98819 16.5245C7.98819 16.8619 7.71152 17.1354 7.37024 17.1354C7.02895 17.1354 6.75228 16.8619 6.75228 16.5245C6.75228 16.1871 7.02895 15.9135 7.37024 15.9135C7.71152 15.9135 7.98819 16.1871 7.98819 16.5245Z" fill="#171D26"/>
</svg>

<svg xmlns="http://www.w3.org/2000/svg" width="24" height="24" fill="none" viewBox="0 0 24 24">
  <path fill="#171D26" d="M17.7 3.14c0 .628-.516 1.138-1.152 1.138-.637 0-1.153-.51-1.153-1.139S15.911 2 16.548 2c.636 0 1.152.51 1.152 1.14Zm1.295 16.09c0 .629-.516 1.139-1.152 1.139-.636 0-1.152-.51-1.152-1.14 0-.628.516-1.138 1.152-1.138.636 0 1.152.51 1.152 1.139ZM16.877 7.126a.961.961 0 0 0 .967-.956.961.961 0 0 0-.967-.956.961.961 0 0 0-.967.956c0 .528.433.956.967.956Zm3.538-.59a.961.961 0 0 1-.967.956.961.961 0 0 1-.967-.956c0-.528.433-.956.967-.956s.967.428.967.956Zm-3.867 3.013a.819.819 0 0 0 .823-.814.819.819 0 0 0-.823-.814.819.819 0 0 0-.823.814c0 .45.368.814.823.814Zm3.395-.471c0 .45-.369.814-.823.814a.819.819 0 0 1-.824-.814c0-.45.369-.814.824-.814a.82.82 0 0 1 .823.814Zm1.234 1.608A.819.819 0 0 0 22 9.872a.819.819 0 0 0-.823-.813.819.819 0 0 0-.823.813c0 .45.368.814.823.814Zm-2.1.448a.716.716 0 0 1-.72.711.716.716 0 0 1-.719-.711c0-.393.322-.712.72-.712.397 0 .72.319.72.712Zm-3.29.365c.397 0 .72-.319.72-.712a.716.716 0 0 0-.72-.711.715.715 0 0 0-.72.711c0 .393.322.712.72.712Zm5.37.427a.716.716 0 0 1-.72.711.716.716 0 0 1-.72-.711c0-.393.323-.712.72-.712.397 0 .72.319.72.712Zm-3.828 1.406a.615.615 0 0 0 .618-.612.614.614 0 0 0-.618-.61.614.614 0 0 0-.618.61c0 .338.277.611.618.611Zm2.698.161c0 .337-.277.61-.618.61a.614.614 0 0 1-.618-.61c0-.338.277-.611.618-.611.341 0 .618.273.618.61Zm-5.249-.527a.614.614 0 0 0 .618-.611.614.614 0 0 0-.618-.611.614.614 0 0 0-.618.61c0 .338.277.612.618.612Zm1.933.852c0 .281-.23.509-.514.509a.511.511 0 0 1-.514-.509c0-.28.23-.508.514-.508.284 0 .514.228.514.508Zm.371 1.914c.25 0 .452-.2.452-.448a.45.45 0 0 0-.452-.447.45.45 0 0 0-.453.447.45.45 0 0 0 .453.448Zm-.72-.082a.369.369 0 0 1-.37.367.369.369 0 0 1-.371-.367c0-.202.166-.366.37-.366.205 0 .371.164.371.366Zm-1.337-.692c.25 0 .452-.2.452-.447a.45.45 0 0 0-.452-.447.45.45 0 0 0-.453.447.45.45 0 0 0 .453.447Zm-.885-1.484c0 .28-.23.508-.515.508a.511.511 0 0 1-.514-.508c0-.28.23-.508.514-.508.284 0 .515.227.515.508Zm-.534-3.317a.511.511 0 0 0 .514-.508.512.512 0 0 0-.514-.509.511.511 0 0 0-.514.509c0 .28.23.508.514.508Zm.677-2.237a.45.45 0 0 1-.452.447.45.45 0 0 1-.453-.447.45.45 0 0 1 .453-.448c.25 0 .452.2.452.448Zm.042-1.017c.205 0 .37-.164.37-.366a.369.369 0 0 0-.37-.367.369.369 0 0 0-.37.367c0 .202.165.366.37.366Zm-.411-1.139a.45.45 0 0 1-.452.447.45.45 0 0 1-.453-.447.45.45 0 0 1 .453-.448c.25 0 .452.2.452.448Zm4.342 9.338a.511.511 0 0 0 .514-.509c0-.28-.23-.508-.514-.508a.511.511 0 0 0-.514.508c0 .281.23.509.514.509Zm-5.454-9.991c0 .281-.23.509-.514.509a.511.511 0 0 1-.514-.509c0-.28.23-.508.514-.508.284 0 .514.228.514.508Zm-.163 2.665a.511.511 0 0 0 .514-.508c0-.28-.23-.508-.514-.508a.511.511 0 0 0-.514.508c0 .28.23.508.514.508Zm.041 1.445a.614.614 0 0 1-.617.611.614.614 0 0 1-.618-.61c0-.338.276-.612.617-.612.342 0 .619.274.619.611Zm-2.491.611c.397 0 .72-.318.72-.711a.716.716 0 0 0-.72-.711.716.716 0 0 0-.72.711c0 .393.322.711.72.711Zm-1.358-.325c0 .45-.368.814-.823.814a.819.819 0 0 1-.823-.814c0-.45.368-.814.823-.814.455 0 .823.364.823.814ZM5.622 11.48a.961.961 0 0 0 .967-.956.961.961 0 0 0-.967-.956.961.961 0 0 0-.966.956.96.96 0 0 0 .966.956Zm-1.318.814c0 .629-.515 1.139-1.152 1.139-.636 0-1.152-.51-1.152-1.14 0-.628.516-1.138 1.152-1.138.637 0 1.152.51 1.152 1.139Zm.352-3.195a.961.961 0 0 0 .966-.956.961.961 0 0 0-.966-.956.961.961 0 0 0-.967.956c0 .528.433.956.967.956Zm3.209-1.973a.82.82 0 0 1-.824.814.819.819 0 0 1-.823-.814c0-.45.369-.814.823-.814.455 0 .824.364.824.814ZM6.692 5.784a.819.819 0 0 0 .824-.814.819.819 0 0 0-.824-.814.819.819 0 0 0-.823.814c0 .45.369.814.823.814Zm2.901-1.2a.716.716 0 0 1-.72.712.716.716 0 0 1-.72-.712c0-.393.323-.711.72-.711.398 0 .72.318.72.711Zm1.152.713a.615.615 0 0 0 .618-.611.615.615 0 0 0-.618-.611.615.615 0 0 0-.618.61c0 .338.277.612.618.612Zm.967 1.545a.614.614 0 0 1-.618.611.615.615 0 0 1-.618-.61c0-.338.276-.611.618-.611.34 0 .618.273.618.61Zm-2.49.63c.397 0 .72-.319.72-.712a.716.716 0 0 0-.72-.711.716.716 0 0 0-.72.711c0 .393.323.712.72.712Zm-1.666 5.046a.369.369 0 0 1-.37.367.369.369 0 0 1-.372-.367c0-.202.166-.366.371-.366s.37.164.37.366Zm1.11.182c.25 0 .453-.2.453-.448a.45.45 0 0 0-.453-.447.45.45 0 0 0-.452.447.45.45 0 0 0 .452.448Zm2.141-1.119c0 .281-.23.509-.514.509a.511.511 0 0 1-.515-.509c0-.28.23-.508.514-.508.284 0 .515.227.515.508Zm-.123 2.137a.614.614 0 0 0 .618-.611.614.614 0 0 0-.618-.611.614.614 0 0 0-.618.61c0 .338.276.612.617.612Zm-1.462-.122c0 .28-.23.508-.514.508a.511.511 0 0 1-.515-.508c0-.281.23-.509.515-.509.284 0 .514.228.514.509Zm-2.262.486c.25 0 .452-.2.452-.447a.45.45 0 0 0-.452-.447.45.45 0 0 0-.453.447.45.45 0 0 0 .453.447Zm.534.897c0 .28-.23.508-.514.508a.511.511 0 0 1-.514-.508c0-.28.23-.508.514-.508a.51.51 0 0 1 .514.508Zm1.584.773a.614.614 0 0 0 .618-.61.614.614 0 0 0-.618-.612.614.614 0 0 0-.617.611c0 .338.276.611.617.611Zm3.168-.977a.716.716 0 0 1-.72.711.716.716 0 0 1-.719-.711c0-.393.322-.712.72-.712.397 0 .72.319.72.712Zm.721 2.482a.819.819 0 0 0 .824-.814.819.819 0 0 0-.824-.813.819.819 0 0 0-.823.813c0 .45.369.814.823.814Zm-2.305-.469a.716.716 0 0 1-.72.711.716.716 0 0 1-.72-.711c0-.393.322-.712.72-.712.397 0 .72.319.72.712Zm-2.427 2.096c.397 0 .72-.319.72-.712a.716.716 0 0 0-.72-.71.716.716 0 0 0-.72.71c0 .393.323.712.72.712Zm2.242.976c0 .45-.368.814-.823.814a.819.819 0 0 1-.823-.814c0-.45.369-.813.823-.813.455 0 .823.364.823.813ZM13.44 21a.961.961 0 0 0 .967-.956.961.961 0 0 0-.967-.956.961.961 0 0 0-.967.956c0 .528.433.956.967.956Zm-1.254-2.522c0 .45-.368.814-.823.814a.819.819 0 0 1-.823-.814c0-.45.369-.814.823-.814.455 0 .823.364.823.814Zm2.839.488a.961.961 0 0 0 .967-.956.961.961 0 0 0-.967-.956.961.961 0 0 0-.967.956c0 .528.433.956.967.956Zm-7.037-2.442a.614.614 0 0 1-.618.611.614.614 0 0 1-.618-.61c0-.338.277-.611.618-.611.342 0 .618.273.618.61Z"/>
</svg>
